img/sp-2.svg

<svg width="159" height="118" viewBox="0 0 159 118" fill="none" xmlns="http://www.w3.org/2000/svg">
<path d="M35.3606 62.3275C35.0151 61.9574 35.0314 61.4186 35.3987 61.0703L46.1424 50.884C46.5097 50.5358 47.0443 50.5522 47.3899 50.9224C47.7354 51.2926 47.7191 51.8314 47.3518 52.1797L36.6081 62.3659C36.1544 62.6217 35.6198 62.6052 35.3606 62.3275Z" fill="#FD2E56"/>
<path d="M56.7662 51.1109C57.0533 50.693 57.5035 50.5435 57.8167 50.7621L66.9792 57.1552C67.2924 57.3737 67.312 57.8511 67.025 58.2689C66.7379 58.6868 66.2877 58.8362 65.9744 58.6177L56.812 52.2246C56.5705 51.9016 56.5509 51.4243 56.7662 51.1109Z" fill="#FD2E56"/>
<path d="M74.4422 57.5287C74.0967 57.1585 74.2083 56.5293 74.7027 56.0606L89.1641 42.3495C89.6585 41.8808 90.2885 41.8068 90.634 42.177C90.9796 42.5472 90.8679 43.1764 90.3735 43.6451L75.9121 57.3562C75.3313 57.7324 74.7014 57.8063 74.4422 57.5287Z" fill="#FD2E56"/>
<path d="M94.6411 45.1923C90.7888 45.1923 87.707 42.0864 87.707 38.204C87.707 34.3216 90.7888 31.2156 94.6411 31.2156C98.4934 31.2156 101.575 34.3216 101.575 38.204C101.575 42.0864 98.4934 45.1923 94.6411 45.1923ZM94.6411 33.9334C92.1371 33.9334 90.211 35.8745 90.211 38.3981C90.211 40.7275 92.1371 42.8628 94.6411 42.8628C97.1451 42.8628 99.0713 40.9216 99.0713 38.3981C99.0713 35.8745 97.1451 33.9334 94.6411 33.9334Z" fill="#FD2E56"/>
<path d="M71.9477 68.0631C68.0954 68.0631 65.0137 64.9572 65.0137 61.0749C65.0137 57.1925 68.0954 54.0865 71.9477 54.0865C75.8 54.0865 78.8818 57.1925 78.8818 61.0749C78.8818 64.9572 75.8 68.0631 71.9477 68.0631ZM71.9477 56.8042C69.4437 56.8042 67.5176 58.7454 67.5176 61.2689C67.5176 63.5984 69.4437 65.7337 71.9477 65.7337C74.4517 65.7337 76.3779 63.7925 76.3779 61.2689C76.3779 58.7454 74.4517 56.8042 71.9477 56.8042Z" fill="#FD2E56"/>
<path d="M51.7759 55.3571C47.9236 55.3571 44.8418 52.2512 44.8418 48.3688C44.8418 44.4864 47.9236 41.3804 51.7759 41.3804C55.6282 41.3804 58.7101 44.4864 58.7101 48.3688C58.7101 52.2512 55.6282 55.3571 51.7759 55.3571ZM51.7759 44.0982C49.2719 44.0982 47.3458 46.0393 47.3458 48.5629C47.3458 50.8923 49.2719 53.0276 51.7759 53.0276C54.2799 53.0276 56.2061 51.0864 56.2061 48.5629C56.2061 46.0393 54.2799 44.0982 51.7759 44.0982Z" fill="#FD2E56"/>
<path d="M31.604 74.416C27.7517 74.416 24.6699 71.3102 24.6699 67.4278C24.6699 63.5454 27.7517 60.4394 31.604 60.4394C35.4563 60.4394 38.5382 63.5454 38.5382 67.4278C38.5382 71.3102 35.4563 74.416 31.604 74.416ZM31.604 63.1571C29.1 63.1571 27.1739 65.0983 27.1739 67.6218C27.1739 69.9513 29.1 72.0866 31.604 72.0866C34.108 72.0866 36.0342 70.1454 36.0342 67.6218C36.0342 65.0983 34.108 63.1571 31.604 63.1571Z" fill="#FD2E56"/>
<path d="M128.449 98.7796H1.14542C0.490907 98.7796 0 98.2849 0 97.6252V1.15437C0 0.494742 0.490907 0 1.14542 0H128.449C129.103 0 129.594 0.494742 129.594 1.15437V97.6252C129.431 98.2849 128.94 98.7796 128.449 98.7796ZM2.12716 96.6358H127.303V2.30874H2.12716V96.6358Z" fill="#9EA3B2"/>
<path d="M128.449 23.9117H1.14542C0.490907 23.9117 0 23.417 0 22.7574C0 22.0978 0.490907 21.603 1.14542 21.603H128.449C129.103 21.603 129.594 22.0978 129.594 22.7574C129.431 23.417 128.94 23.9117 128.449 23.9117Z" fill="#9EA3B2"/>
<path d="M26.0166 12.3681C25.8529 12.3681 25.8529 12.3681 25.8529 12.3681C25.8529 12.3681 25.853 12.3681 25.6893 12.3681C25.6893 12.3681 25.6893 12.3681 25.5257 12.3681C25.5257 12.3681 25.5257 12.3681 25.3621 12.3681C25.3621 12.3681 25.3621 12.3681 25.1984 12.3681C25.1984 12.3681 25.1984 12.3681 25.0348 12.3681C25.0348 12.3681 25.0348 12.3681 24.8712 12.3681C24.8712 12.3681 24.8712 12.3681 24.7076 12.3681C24.7076 12.3681 24.7075 12.3681 24.5439 12.3681C24.5439 12.3681 24.5439 12.3681 24.3803 12.3681C24.3803 12.3681 24.3803 12.3681 24.2166 12.3681C24.2166 12.3681 24.2167 12.3681 24.0531 12.3681C24.0531 12.3681 24.053 12.3681 23.8894 12.3681C23.8894 12.3681 23.8894 12.3681 23.7258 12.3681C23.7258 12.3681 23.7258 12.3681 23.5621 12.3681C23.3985 12.3681 23.5621 12.3681 23.3985 12.3681C23.3985 12.3681 23.3985 12.3681 23.2349 12.3681C23.2349 12.3681 23.2349 12.3681 23.0713 12.3681C23.0713 12.3681 23.0713 12.3681 22.9076 12.3681C22.9076 12.3681 22.9076 12.3681 22.744 12.3681C22.744 12.3681 22.744 12.3681 22.5803 12.3681C22.5803 12.3681 22.5804 12.3681 22.4168 12.3681C22.4168 12.3681 22.4168 12.3681 22.2531 12.3681C22.2531 12.3681 22.2531 12.3681 22.0895 12.3681C22.0895 12.3681 22.0895 12.3681 21.9258 12.3681C21.9258 12.3681 21.9258 12.3681 21.7622 12.3681C21.7622 12.3681 21.7622 12.3681 21.5986 12.3681C21.5986 12.3681 21.5986 12.3681 21.435 12.3681C21.435 12.3681 21.435 12.3681 21.2713 12.3681C21.2713 12.3681 21.2713 12.3681 21.1077 12.3681C21.1077 12.3681 21.1077 12.3681 20.9441 12.3681C20.9441 12.3681 20.9441 12.3681 20.7805 12.3681C20.7805 12.3681 20.7805 12.3681 20.6168 12.3681C20.6168 12.3681 20.6168 12.3681 20.4532 12.3681C20.4532 12.3681 20.4532 12.3681 20.2896 12.3681C20.2896 12.3681 20.2895 12.3681 20.1259 12.3681C20.1259 12.3681 20.126 12.3681 19.9623 12.3681C19.9623 12.3681 19.9623 12.3681 19.7987 12.3681C19.7987 12.3681 19.7987 12.3681 19.635 12.3681C19.635 12.3681 19.635 12.3681 19.4714 12.3681C19.4714 12.3681 19.4714 12.3681 19.3078 12.3681C19.3078 12.3681 19.3078 12.3681 19.1442 12.3681C19.1442 12.3681 19.1442 12.3681 18.9805 12.3681C18.9805 12.3681 18.9805 12.3681 18.8169 12.3681C18.8169 12.3681 18.8169 12.3681 18.6533 12.3681C18.6533 12.3681 18.6532 12.3681 18.4896 12.3681C18.4896 12.3681 18.4897 12.3681 18.326 12.3681C18.326 12.3681 18.326 12.3681 18.1624 12.3681C18.1624 12.3681 18.1624 12.3681 17.9988 12.3681C17.9988 12.3681 17.9987 12.3681 17.8351 12.3681C17.8351 12.3681 17.8351 12.3681 17.6715 12.3681C17.6715 12.3681 17.6715 12.3681 17.5079 12.3681C17.5079 12.3681 17.5079 12.3681 17.3442 12.3681C17.3442 12.3681 17.3442 12.3681 17.1806 12.3681C17.1806 12.3681 17.1806 12.3681 17.017 12.3681C17.017 12.3681 17.017 12.3681 16.8533 12.3681C16.8533 12.3681 16.8534 12.3681 16.6897 12.3681C16.6897 12.3681 16.6897 12.3681 16.5261 12.3681C16.5261 12.3681 16.5261 12.3681 16.3625 12.3681C16.3625 12.3681 16.3625 12.3681 16.1988 12.3681C16.1988 12.3681 16.1988 12.3681 16.0352 12.3681C16.0352 12.3681 16.0352 12.3681 15.8716 12.3681C15.8716 12.3681 15.8716 12.3681 15.708 12.3681C15.708 12.3681 15.7079 12.3681 15.5443 12.3681C15.5443 12.3681 15.5443 12.3681 15.3807 12.3681C15.3807 12.3681 15.3807 12.3681 15.217 12.3681C15.217 12.3681 15.2171 12.3681 15.0534 12.3681C15.0534 12.3681 15.0534 12.3681 14.8898 12.3681C14.8898 12.3681 14.8898 12.3681 14.7262 12.3681C14.7262 12.3681 14.7262 12.3681 14.5625 12.3681C14.5625 12.3681 14.5625 12.3681 14.3989 12.3681C14.3989 12.3681 14.3989 12.3681 14.2353 12.3681C14.2353 12.3681 14.2353 12.3681 14.0717 12.3681C14.0717 12.3681 14.0717 12.3681 13.908 12.3681C13.908 12.3681 13.908 12.3681 13.7444 12.3681C13.7444 12.3681 13.7444 12.3681 13.5807 12.3681C13.5807 12.3681 13.5808 12.3681 13.4172 12.3681C13.4172 12.3681 13.4171 12.3681 13.2535 12.3681C13.2535 12.3681 13.2535 12.3681 13.0899 12.3681C13.0899 12.3681 13.0899 12.3681 12.9262 12.3681C12.9262 12.3681 12.9262 12.3681 12.7626 12.3681C12.7626 12.3681 12.7626 12.3681 12.599 12.3681C12.599 12.3681 12.599 12.3681 12.4354 12.3681C12.4354 12.3681 12.4354 12.3681 12.2717 12.3681C12.2717 12.3681 12.2717 12.3681 12.1081 12.3681C12.1081 12.3681 12.1081 12.3681 11.9445 12.3681C11.9445 12.3681 11.9445 12.3681 11.7809 12.3681C11.7809 12.3681 11.7809 12.3681 11.6172 12.3681C11.6172 12.3681 11.6172 12.3681 11.4536 12.3681C11.4536 12.3681 11.4536 12.3681 11.2899 12.3681C11.2899 12.3681 11.2899 12.3681 11.1263 12.3681C11.1263 12.3681 11.1263 12.3681 10.9627 12.3681C10.9627 12.3681 10.9627 12.3681 10.7991 12.3681C10.7991 12.3681 10.7991 12.3681 10.6354 12.3681C10.6354 12.3681 10.6354 12.3681 10.4718 12.3681C10.4718 12.3681 10.4718 12.3681 10.3082 12.3681C10.3082 12.3681 10.3082 12.3681 10.1446 12.3681C10.1446 12.3681 10.1446 12.3681 9.98093 12.3681C9.98093 12.3681 9.98092 12.3681 9.81729 12.3681C9.81729 12.3681 9.81728 12.3681 9.65365 12.3681C9.65365 12.3681 9.65364 12.3681 9.49001 12.3681C9.49001 12.3681 9.49005 12.3681 9.32642 12.3681C9.32642 12.3681 9.32641 12.3681 9.16279 12.3681C9.16279 12.3681 9.16278 12.3681 8.99915 12.3681C8.99915 12.3681 8.99914 12.3681 8.83551 12.3681C8.83551 12.3681 8.8355 12.3681 8.67187 12.3681C8.67187 12.3681 8.67191 12.3681 8.50828 12.3681C8.50828 12.3681 8.50827 12.3681 8.34464 12.3681C8.34464 12.3681 8.34463 12.3681 8.181 12.3681C8.181 12.3681 8.18099 12.3681 8.01736 12.3681C8.01736 12.3681 8.01735 12.3681 7.85372 12.3681C7.85372 12.3681 7.85376 12.3681 7.69013 12.3681C7.69013 12.3681 7.69012 12.3681 7.52649 12.3681C7.52649 12.3681 7.52648 12.3681 7.36285 12.3681C7.36285 12.3681 7.36284 12.3681 7.19922 12.3681C7.19922 12.3681 7.19921 12.3681 7.03558 12.3681C7.03558 12.3681 7.03562 12.3681 6.87199 12.3681C6.21747 12.3681 5.72656 11.8735 5.72656 11.2139C5.72656 10.5542 6.21746 10.0595 6.70835 10.0595C7.36286 10.0595 7.85372 10.5542 7.85372 11.2139C27.162 11.8735 26.6711 12.3681 26.0166 12.3681Z" fill="#FC4266"/>
<path d="M115.686 88.7203H13.745C13.0905 88.7203 12.5996 88.2255 12.5996 87.5659C12.5996 86.9062 13.0905 86.4115 13.745 86.4115H115.686C116.34 86.4115 116.831 86.9062 116.831 87.5659C116.831 88.2255 116.34 88.7203 115.686 88.7203Z" fill="#9EA3B2"/>
<path d="M134.535 117.249C123.408 117.249 113.59 109.168 111.3 98.2843C111.136 97.6247 111.627 97.1299 112.118 96.965C112.772 96.8001 113.263 97.2948 113.427 97.7896C115.554 107.849 124.39 115.105 134.535 115.105C146.48 115.105 156.134 105.375 156.134 93.3371C156.134 81.2988 146.48 71.5693 134.535 71.5693C132.899 71.5693 131.426 71.7342 129.79 72.064C129.135 72.2289 128.644 71.8991 128.481 71.2395C128.317 70.5799 128.644 70.0851 129.299 69.9202C130.935 69.5904 132.735 69.4255 134.535 69.4255C147.625 69.4255 158.261 80.1445 158.261 93.3371C158.261 106.53 147.625 117.249 134.535 117.249Z" fill="#9EA3B2"/>
<path d="M134.535 117.249C129.463 117.249 125.045 109.334 124.227 98.1199C124.227 97.4603 124.554 96.9656 125.208 96.9656C125.699 96.9656 126.354 97.2954 126.354 97.955C127.172 107.849 130.772 115.105 134.699 115.105C138.789 115.105 143.207 106.365 143.207 93.3376C143.207 80.3099 138.789 71.5698 134.699 71.5698C132.899 71.5698 131.59 73.054 130.608 74.3733C130.281 74.868 129.626 75.0329 129.135 74.703C128.645 74.3732 128.481 73.7136 128.808 73.2189C130.444 70.7453 132.572 69.426 134.535 69.426C140.426 69.426 145.171 79.9801 145.171 93.3376C145.171 106.86 140.426 117.249 134.535 117.249Z" fill="#9EA3B2"/>
<path d="M134.535 117.249C133.88 117.249 133.553 116.755 133.553 116.095V70.4155C133.553 69.7559 134.044 69.2612 134.535 69.2612C135.189 69.2612 135.516 69.7559 135.516 70.4155V116.26C135.68 116.919 135.189 117.249 134.535 117.249Z" fill="#9EA3B2"/>
<path d="M157.278 94.492H129.624C128.97 94.492 128.643 93.9973 128.643 93.3377C128.643 92.6781 129.133 92.1833 129.624 92.1833H157.278C157.932 92.1833 158.259 92.6781 158.259 93.3377C158.259 93.9973 157.769 94.492 157.278 94.492Z" fill="#9EA3B2"/>
<path d="M134.206 84.4328C132.57 84.4328 131.097 84.4328 129.624 84.2679C128.97 84.2679 128.643 83.7731 128.643 83.1135C128.643 82.4539 129.133 82.1241 129.788 82.1241C137.315 82.7837 145.169 81.7943 153.023 79.4856C153.514 79.3207 154.169 79.6505 154.332 80.1452C154.496 80.6399 154.169 81.2995 153.678 81.4644C146.969 83.4433 140.424 84.4328 134.206 84.4328Z" fill="#9EA3B2"/>
<path d="M115.88 105.706C115.389 105.706 115.062 105.376 114.898 104.881C114.734 104.386 115.062 103.727 115.553 103.562C127.825 99.6041 140.261 99.6041 153.514 103.562C154.005 103.727 154.333 104.386 154.169 104.881C154.005 105.376 153.351 105.706 152.86 105.541C140.097 101.748 127.988 101.748 116.043 105.541C116.043 105.706 115.88 105.706 115.88 105.706Z" fill="#9EA3B2"/>
</svg>

<svg width="159" height="118" fill="none" xmlns="http://www.w3.org/2000/svg"><path d="M35.36 62.328a.873.873 0 0 1 .039-1.258l10.743-10.186a.857.857 0 0 1 1.248.038c.345.37.33.91-.038 1.258L36.608 62.366c-.454.256-.988.24-1.247-.038zM56.766 51.11c.287-.417.738-.566 1.05-.348l9.163 6.393c.313.219.333.696.046 1.114-.287.418-.737.567-1.05.349l-9.163-6.393c-.241-.323-.261-.8-.046-1.114zM74.442 57.529c-.345-.37-.234-1 .26-1.468l14.462-13.712c.495-.468 1.124-.542 1.47-.172.346.37.234 1-.26 1.468L75.912 57.356c-.58.376-1.21.45-1.47.173z" fill="#FD2E56"/><path d="M94.641 45.192c-3.852 0-6.934-3.106-6.934-6.988 0-3.882 3.082-6.988 6.934-6.988 3.852 0 6.934 3.106 6.934 6.988 0 3.882-3.082 6.988-6.934 6.988zm0-11.259c-2.504 0-4.43 1.941-4.43 4.465 0 2.33 1.926 4.465 4.43 4.465 2.504 0 4.43-1.941 4.43-4.465s-1.926-4.465-4.43-4.465zM71.948 68.063c-3.853 0-6.934-3.106-6.934-6.988 0-3.883 3.081-6.989 6.934-6.989 3.852 0 6.934 3.107 6.934 6.989 0 3.882-3.082 6.988-6.934 6.988zm0-11.259c-2.504 0-4.43 1.941-4.43 4.465 0 2.33 1.926 4.465 4.43 4.465 2.504 0 4.43-1.941 4.43-4.465s-1.926-4.465-4.43-4.465zM51.776 55.357c-3.852 0-6.934-3.106-6.934-6.988 0-3.883 3.082-6.989 6.934-6.989 3.852 0 6.934 3.106 6.934 6.989 0 3.882-3.082 6.988-6.934 6.988zm0-11.259c-2.504 0-4.43 1.941-4.43 4.465 0 2.33 1.926 4.465 4.43 4.465 2.504 0 4.43-1.942 4.43-4.465 0-2.524-1.926-4.465-4.43-4.465zM31.604 74.416c-3.852 0-6.934-3.106-6.934-6.988 0-3.883 3.082-6.989 6.934-6.989 3.852 0 6.934 3.106 6.934 6.989 0 3.882-3.082 6.988-6.934 6.988zm0-11.259c-2.504 0-4.43 1.941-4.43 4.465 0 2.33 1.926 4.465 4.43 4.465 2.504 0 4.43-1.942 4.43-4.465 0-2.524-1.926-4.465-4.43-4.465z" fill="#FD2E56"/><path d="M128.449 98.78H1.145C.491 98.78 0 98.285 0 97.625V1.155C0 .494.49 0 1.145 0H128.45c.654 0 1.145.495 1.145 1.154v96.471c-.163.66-.654 1.155-1.145 1.155zM2.127 96.636h125.176V2.309H2.127v94.327z" fill="#9EA3B2"/><path d="M128.449 23.912H1.145C.491 23.912 0 23.417 0 22.757s.49-1.154 1.145-1.154H128.45c.654 0 1.145.495 1.145 1.154-.163.66-.654 1.155-1.145 1.155z" fill="#9EA3B2"/><path d="M26.017 12.368h-.164-.164-.163-.164-.164-.163-.164-.163-.164-.164-.163-.164-.164-.163-.328-.163-.164-.163-.164-.164-.163-.164-.163-.164-.164-.163-.164-.164-.163-.164-.163-.164-.164-.163-.164-.164-.163-.164-.164-.163-.164-.163-.164-.164-.163-.164-.164H18h-.164-.163-.164-.164-.163-.164-.164-.163-.164-.163-.164-.164-.163-.164-.164-.163-.164-.164-.163-.164-.164-.163-.164-.163-.164-.164-.163-.164-.163-.164-.164-.163-.164-.164-.163-.164-.164-.163-.164-.163-.164-.164-.163-.164-.164-.163-.164-.163-.164-.164-.163-.164-.164-.163-.164-.163-.164-.164-.163-.164-.164-.163-.164-.164-.163-.164-.163-.164c-.655 0-1.145-.495-1.145-1.154 0-.66.49-1.155.981-1.155.655 0 1.146.495 1.146 1.155 19.308.66 18.817 1.154 18.163 1.154z" fill="#FC4266"/><path d="M115.686 88.72H13.745c-.654 0-1.145-.495-1.145-1.154 0-.66.49-1.154 1.145-1.154h101.941c.654 0 1.145.494 1.145 1.154 0 .66-.491 1.154-1.145 1.154zM134.535 117.249c-11.127 0-20.945-8.081-23.235-18.965-.164-.66.327-1.154.818-1.319.654-.165 1.145.33 1.309.825 2.127 10.059 10.963 17.315 21.108 17.315 11.945 0 21.599-9.73 21.599-21.768S146.48 71.57 134.535 71.57c-1.636 0-3.109.165-4.745.495-.655.165-1.146-.165-1.309-.824-.164-.66.163-1.155.818-1.32 1.636-.33 3.436-.495 5.236-.495 13.09 0 23.726 10.72 23.726 23.912 0 13.193-10.636 23.912-23.726 23.912z" fill="#9EA3B2"/><path d="M134.535 117.249c-5.072 0-9.49-7.915-10.308-19.13 0-.659.327-1.153.981-1.153.491 0 1.146.33 1.146.989.818 9.894 4.418 17.15 8.345 17.15 4.09 0 8.508-8.74 8.508-21.767 0-13.028-4.418-21.768-8.508-21.768-1.8 0-3.109 1.484-4.091 2.803-.327.495-.982.66-1.473.33-.49-.33-.654-.99-.327-1.484 1.636-2.474 3.764-3.793 5.727-3.793 5.891 0 10.636 10.554 10.636 23.912 0 13.522-4.745 23.911-10.636 23.911z" fill="#9EA3B2"/><path d="M134.535 117.249c-.655 0-.982-.494-.982-1.154v-45.68c0-.66.491-1.154.982-1.154.654 0 .981.495.981 1.154v45.845c.164.659-.327.989-.981.989z" fill="#9EA3B2"/><path d="M157.278 94.492h-27.654c-.654 0-.981-.495-.981-1.154 0-.66.49-1.155.981-1.155h27.654c.654 0 .981.495.981 1.155s-.49 1.154-.981 1.154zM134.206 84.433c-1.636 0-3.109 0-4.582-.165-.654 0-.981-.495-.981-1.154 0-.66.49-.99 1.145-.99 7.527.66 15.381-.33 23.235-2.638.491-.165 1.146.164 1.309.66.164.494-.163 1.153-.654 1.318-6.709 1.98-13.254 2.969-19.472 2.969zM115.88 105.706c-.491 0-.818-.33-.982-.825-.164-.495.164-1.154.655-1.319 12.272-3.958 24.708-3.958 37.961 0 .491.165.819.824.655 1.319-.164.495-.818.825-1.309.66-12.763-3.793-24.872-3.793-36.817 0 0 .165-.163.165-.163.165z" fill="#9EA3B2"/></svg>
